X: 16282
T: Grey Plover, The
R: reel
M: 4/4
K: Gmajor
|:~G3B d zBA|BcBA BcBA|~G3B d zBG|FADA FADA|
G2GB d2 (3Bcd|eBBd ~g3z|efde Bddf|e2dB BAAB:|
|:d ~g3 a z ge|d2BA GBB2|d ~g3 a z ge|d2BG FAA2|
d ~g3 abge|dBBd g zfg|efde Bddf|e2dB BAAB:|

